X:84
T: ES HET E BAUR E TOECHTERLI
N: Z0084
O: Europa, Mitteleuropa, Schweiz
R: Sagen - Lied, Romanze, Juengling zieht in den Krieg; Liebe
M: 2/4
L: 1/16
K: G
D2 | G3FG2A2 | B4A4 | G4z2
d2 | d2A2A2d2 | e4^c4 | d4z2
B2 | c3de2ed | c2ced2z
c | B3AG2A2 | B4A4 | G4g2

@@@ Tune index: 9842
